**kern	**kern	**dynam
*part1	*part1	*part1
*staff2	*staff1	*
*I"Piano	*	*
*clefF4	*clefG2	*
*k[f#c#g#d#]	*k[f#c#g#d#]	*
=1	=1	=1
*	*^	*
4BBB 4BB	8bbL	8ryy	.
.	8aa	8ryy	.
8r	8ff#J	8ryy	.
!	!	!	!LO:DY:a
(4.GG# 4.E 4.G#	(4ee	8eeL	f
.	.	8e	.
.	8dd#)	8bJ	.
=	=	=	=
4.AA 4.E 4.A	(4dd#	8dd#L	.
.	.	8e	.
.	8cc#)	8aJ	.
4.BB 4.E 4.B	(4cc#	8cc#L	.
.	.	8e	.
.	8b)	8g#J	.
=	=	=	=
4.C#) 4.E 4.c#	(4b	8bL	.
.	.	8e	.
.	8a#X)	8f#J	.
(4.AA#X 4.F# 4.A#X	(4ff#^	8ff#L	.
.	.	8f#	.
.	8ee)	8cc#J	.
=	=	=	=
4.BB 4.F# 4.B	(4ee	8eeL	.
.	.	8f#	.
.	8dd#)	8bJ	.
4.C# 4.F# 4.c#	(4dd#	8dd#L	.
.	.	8e	.
.	8cc#)	8a#XJ	.
=	=	=	=
4.D#) 4.F# 4.d#	(4cc#	8cc#L	.
.	.	8f#	.
.	8b)	8bJ	.
4.E 4.e	(4b	8bL	.
.	.	8g#	.
.	8b#X)	8b#J	.
=	=	=	=
2.A 2.e	(4.b#X'	2.f#	.
.	4.cc#'	.	.
=	=	=	=
2.A#X 2.c#	4.dd#'	2.gn	.
.	4.ee')	.	.
*	*v	*v	*
=	=	=
*-	*-	*-
!!!system-decoration: {(s1,s2)}
